assets/svg/icon_login_fingerprint.svg

<svg width="24" height="24" viewBox="0 0 24 24" fill="none" xmlns="http://www.w3.org/2000/svg">
<path d="M19.5 7.09333C17.5805 5.18236 14.9215 4 11.9831 4C9.06225 4 6.41749 5.16882 4.5 7.05928M4.97754 14.2462V14.2224C4.97754 10.295 8.12868 7.11138 12.016 7.11138M14.9276 7.74564C17.362 8.86482 19.0545 11.3436 19.0545 14.2224V14.2277M8.05681 17.3333V14.2219C8.05681 12.0131 9.82933 10.2219 12.016 10.2219C14.2028 10.2219 15.9753 12.0131 15.9753 14.2219V17.3333M9.38711 20C10.1842 19.801 10.6963 18.9522 10.6963 18.2343V14.6667C10.6963 14.313 10.8353 13.9739 11.0828 13.7239C11.3303 13.4738 11.666 13.3333 12.016 13.3333C12.3661 13.3333 12.7017 13.4738 12.9492 13.7239C13.1967 13.9739 13.3358 14.313 13.3358 14.6667V18.2343" stroke="#0166FF" stroke-width="1.5" stroke-linecap="round" stroke-linejoin="round"/>
</svg>

<svg xmlns="http://www.w3.org/2000/svg" width="24" height="24" fill="none"><path stroke="#0166FF" stroke-linecap="round" stroke-linejoin="round" stroke-width="1.5" d="M19.5 7.093A10.62 10.62 0 0 0 11.983 4C9.063 4 6.417 5.169 4.5 7.06m.478 7.186v-.024c0-3.927 3.15-7.11 7.038-7.11m2.912.634a7.12 7.12 0 0 1 4.127 6.476v.006M8.057 17.333v-3.111c0-2.209 1.772-4 3.959-4s3.96 1.791 3.96 4v3.111M9.386 20c.797-.199 1.31-1.048 1.31-1.766v-3.567c0-.354.138-.693.386-.943a1.313 1.313 0 0 1 1.866 0c.248.25.387.589.387.943v3.567"/></svg>
